X: 32089
T: Pepper
R: polka
M: 2/4
K: Bminor
|:B>A FE|FA dc|A>E FA|cB B2|
B>A Fd|cA BA|c>B AF|1 FE EF/A/:|2 FE EF||
|:A>B ca|fa ec|B/c/B/A/ Fc|AF E2|
A>B ca|fa ec|B/c/B/A/ Fe|cB B2:|

